X:132
T:Heel and Toe Polka (1-2-3-4-5)
R:polka 48/24
S:Old Swan Band
Z:P J Headford
M:4/4
L:1/8
Q:1/4=120
K:G
|:BzB2 AGG2|FGAB d^c=c2|
czc2 BAA2|1GFEF EDD2:|2GF/F/ EFG4||
|:BEBE BEE2|GG/G/FE FBB2|
BEBE BEE2|GG/G/FE E2E2:|
|:D2G>A B3c|dBGA B4|
ccA2 BBG2|1AEFG AGFE:|2AEFD GzG2|]
W:Sultan Polka by Charles Louis Napoleon d'Albert 1809-1886.
W:English of French stock. Known as Heel and Toe Polka, 12345.X:253

